X:1
T:Title
%%score { ( 1 3 ) | 2 }
L:1/8
M:4/4
K:Ab
V:1 treble nm="Grand Piano"
V:3 treble 
V:2 bass 
V:1
 z4 z2[Q:1/4=100] [CE]>[DF] | [CA]2 [DB]>[CA] [Ec]2 E>F | A2 B>G [CA]2 [CE]>[DF] | %3
 [CA]2 [DB]>[CA] [=Dc]2 [DF]2 | [EB]6 [CE]>[DF] | [CA]2 [DB]>[CA] [Ec]2 [A,CE]>[A,DF] | %6
 A2 B>G [CA]2 f>c | e2 f>e [EAc]2 [DEB]2 |[M:3/4] [CEA]6 |[M:1/4] f>c | %10
[M:4/4] e2 f>e [EA]2 [EGB]2 | c6 z2 | e2 f>e c2 [AB]2 | [GB]6 [CE]>[DF] | %14
 [CA]2 [DB]>[CA] [Ec]2 E>F | A2 B>G [CA]2 f>c | e2 f>e [EAc]2 [DEB]2 |[M:3/4] [CEA]6 |] %18
V:2
 z4 z2 [A,,A,]>[A,,A,] | [A,,E,]2 [A,,E,]>[A,,E,] [A,,A,]2 [E,A,C]>[E,A,D] | %2
 [E,C]2 [E,G,D]>[E,B,D] [A,,A,]2 [A,,A,]>[A,,A,] | [A,,E,]2 [A,,E,]>[A,,A,] [B,,A,]2 [B,,A,]2 | %4
 [E,G,]6 [A,,A,]>[A,,A,] | [A,,E,]2 [A,,E,]>[A,,E,] [A,,A,]2 E,>G,, | %6
 [E,A,C]2 [E,G,D]>[E,B,D] [A,,A,]2[K:treble] [A,DA]>[A,EA] | %7
 [A,CA]2 [A,DA]>[A,CA][K:bass] E,2 E,2 |[M:3/4] A,,6 |[M:1/4][K:treble] [A,DA]>[A,EA] | %10
[M:4/4] [A,CA]2 [A,DA]>[A,CA][K:bass] C,2 E,2 | A,2 C,E,[K:treble] [A,E]2 [A,DA]>[A,EA] | %12
 [A,CA]2 [A,DA]>[A,CA] [A,EA]2[K:bass] [F,=D]2 | [E,E]6 [A,,A,]>[A,,A,] | %14
 [A,,E,]2 [A,,E,]>[A,,E,] [A,,A,]2 [E,A,C]>[E,A,D] | %15
 [E,A,C]2 [E,G,D]>[E,B,D] [A,,A,]2[K:treble] [A,DA]>[A,EA] | %16
 [A,CA]2 [A,DA]>[A,CA][K:bass] E,2 E,2 |[M:3/4] A,,6 |] %18
V:3
 x8 | x8 | x8 | x8 | x8 | x8 | x8 | x8 |[M:3/4] x6 |[M:1/4] x2 |[M:4/4] x8 | [EA]2 [EA]2 A2 f>c | %12
 x8 | x8 | x8 | x8 | x8 |[M:3/4] x6 |] %18

